Newaita/actions/32/document-revert.svg

<svg height="32" viewBox="0 0 32 32" width="32" xmlns="http://www.w3.org/2000/svg"><g fill="#424242"><path d="m15.875 14.804688v6.613281l-5.289062-3.308594zm0 0"/><path d="m7.945312 2.894531c-1.464843 0-2.648437 1.183594-2.648437 2.648438v21.167969c0 1.464843 1.183594 2.644531 2.648437 2.644531h5.292969v-2.644531h-3.96875c-.734375 0-1.324219-.589844-1.324219-1.324219v-18.519531c0-.734376.589844-1.324219 1.324219-1.324219h5.289063v-.007813h4.746094l4.523437 4.523438v3.429687h-.007813v.652344h2.648438v-.652344h-.007812v-3.976562c0-.351563-.140626-.683594-.386719-.929688l-5.292969-5.292969c-.246094-.246093-.578125-.386718-.929688-.386718h-5.292968v-.007813zm0 0"/><path d="m17.199219 13.480469-6.613281 4.628906 6.613281 4.632813v-3.308594h5.292969c.734374 0 1.324218.589844 1.324218 1.324218v4.628907c0 .734375-.589844 1.324219-1.324218 1.324219h-12.570313c0 1.464843 1.179687 2.644531 2.648437 2.644531h11.246094c1.464844 0 2.644532-1.179688 2.644532-2.644531v-7.277344c0-1.464844-1.179688-2.644532-2.644532-2.644532h-6.617187zm0 0"/></g></svg>

<svg xmlns="http://www.w3.org/2000/svg" xmlns:xlink="http://www.w3.org/1999/xlink" width="32px" height="32px" viewBox="0 0 32 32" version="1.1">
<g id="surface1">
     <defs>
  <style id="current-color-scheme" type="text/css">
   .ColorScheme-Text { color:#424242; } .ColorScheme-Highlight { color:#eeeeee; }
  </style>
 </defs>
<path style="fill:currentColor" class="ColorScheme-Text" d="M 15.875 14.804688 L 15.875 21.417969 L 10.585938 18.109375 Z M 15.875 14.804688 "/>
     <defs>
  <style id="current-color-scheme" type="text/css">
   .ColorScheme-Text { color:#424242; } .ColorScheme-Highlight { color:#eeeeee; }
  </style>
 </defs>
<path style="fill:currentColor" class="ColorScheme-Text" d="M 7.945312 2.894531 C 6.480469 2.894531 5.296875 4.078125 5.296875 5.542969 L 5.296875 26.710938 C 5.296875 28.175781 6.480469 29.355469 7.945312 29.355469 L 13.238281 29.355469 L 13.238281 26.710938 L 9.269531 26.710938 C 8.535156 26.710938 7.945312 26.121094 7.945312 25.386719 L 7.945312 6.867188 C 7.945312 6.132812 8.535156 5.542969 9.269531 5.542969 L 14.558594 5.542969 L 14.558594 5.535156 L 19.304688 5.535156 L 23.828125 10.058594 L 23.828125 13.488281 L 23.820312 13.488281 L 23.820312 14.140625 L 26.46875 14.140625 L 26.46875 13.488281 L 26.460938 13.488281 L 26.460938 9.511719 C 26.460938 9.160156 26.320312 8.828125 26.074219 8.582031 L 20.78125 3.289062 C 20.535156 3.042969 20.203125 2.902344 19.851562 2.902344 L 14.558594 2.902344 L 14.558594 2.894531 Z M 7.945312 2.894531 "/>
     <defs>
  <style id="current-color-scheme" type="text/css">
   .ColorScheme-Text { color:#424242; } .ColorScheme-Highlight { color:#eeeeee; }
  </style>
 </defs>
<path style="fill:currentColor" class="ColorScheme-Text" d="M 17.199219 13.480469 L 10.585938 18.109375 L 17.199219 22.742188 L 17.199219 19.433594 L 22.492188 19.433594 C 23.226562 19.433594 23.816406 20.023438 23.816406 20.757812 L 23.816406 25.386719 C 23.816406 26.121094 23.226562 26.710938 22.492188 26.710938 L 9.921875 26.710938 C 9.921875 28.175781 11.101562 29.355469 12.570312 29.355469 L 23.816406 29.355469 C 25.28125 29.355469 26.460938 28.175781 26.460938 26.710938 L 26.460938 19.433594 C 26.460938 17.96875 25.28125 16.789062 23.816406 16.789062 L 17.199219 16.789062 Z M 17.199219 13.480469 "/>
</g>
</svg>
